X:1
T:Old Joe
M:C|
L:1/8
K:C
S:Portland Collection Version
"C"[E3c3](d cA)Gc|"F"AGA(B cB)cd|"C" eg2e ge"Am"a(g |"G7"eg)a(_b ag)ed|!
"C"c2 c(d cA)Gc|"F"AGA(B cB)cd|"G" ega(_b ag)e(a|ge)dB "C"c4|]!
"Am"A,4 C4|"E"EA2_E "E"DCA,G,|"Am"A,4C4|"F7"_E3E DCA,G,|!
"Am"A2,A2,C2D2|"E"EA2_E "F7"DCA,C|"C"G,2c2"F"cAGF|"G"ECDB,"C"C4:|]!
